src/images/values/starMob.svg

<svg width="47" height="36" viewBox="0 0 47 36" fill="none" xmlns="http://www.w3.org/2000/svg">
<path d="M11.79 18.8954L7.38091 23.4605C6.41463 24.4608 5.93148 24.9619 5.76328 25.386C5.38213 26.3506 5.7096 27.4225 6.5381 27.9307C6.90314 28.1526 7.55985 28.2224 8.87328 28.362C9.61589 28.4407 9.9863 28.4783 10.2959 28.5982C10.642 28.7324 10.9548 28.9401 11.2128 29.2071C11.4708 29.474 11.6677 29.7938 11.79 30.1443C11.9046 30.4665 11.9421 30.8494 12.0191 31.6189C12.1515 32.9789 12.2195 33.659 12.4342 34.0348C12.9245 34.8937 13.9606 35.2302 14.8911 34.8365C15.3026 34.6647 15.7858 34.1654 16.7521 33.1633L23.5 26.1752L30.2478 33.1633C31.2141 34.1654 31.6973 34.6647 32.1088 34.8365C33.0393 35.2302 34.0754 34.8937 34.5657 34.0348C34.7804 33.659 34.8466 32.9789 34.9808 31.6189C35.0578 30.8494 35.0954 30.4665 35.2099 30.1443C35.4676 29.425 36.008 28.8648 36.7041 28.5982C37.0136 28.4783 37.384 28.4407 38.1266 28.362C39.4401 28.2224 40.0968 28.1526 40.4618 27.9307C41.2903 27.4225 41.6178 26.3506 41.2366 25.386C41.0684 24.9619 40.5853 24.4608 39.619 23.4605L35.2099 18.8954M21.9721 9.98875C22.652 8.76651 22.992 8.15807 23.5002 8.15807C24.0084 8.15807 24.3484 8.76651 25.0284 9.98875L25.2037 10.3037C25.397 10.6509 25.4936 10.8227 25.6439 10.9372C25.796 11.0517 25.9839 11.0947 26.3597 11.1788L26.6997 11.2575C28.0203 11.5564 28.6806 11.7049 28.838 12.2095C28.9955 12.716 28.5446 13.2421 27.6445 14.2943L27.4119 14.5663C27.156 14.8652 27.0272 15.0137 26.9699 15.1998C26.9126 15.3859 26.9323 15.5846 26.9699 15.9836L27.0057 16.3469C27.1417 17.7517 27.2097 18.455 26.7999 18.7663C26.3883 19.0777 25.7692 18.7932 24.5327 18.2241L24.2142 18.0774C23.8617 17.9163 23.6863 17.8358 23.5002 17.8358C23.3141 17.8358 23.1388 17.9163 22.7862 18.0774L22.4677 18.2241C21.2312 18.795 20.6121 19.0777 20.2005 18.7663C19.789 18.455 19.8588 17.7517 19.9948 16.3469L20.0305 15.9836C20.0681 15.5846 20.0878 15.3859 20.0305 15.1998C19.9733 15.0155 19.8444 14.8652 19.5886 14.5663L19.3559 14.2943C18.4559 13.2421 18.0049 12.716 18.1624 12.2095C18.3199 11.7049 18.9802 11.5564 20.3007 11.2575L20.6407 11.1788C21.0165 11.0947 21.2044 11.0535 21.3565 10.9372C21.5068 10.8227 21.6034 10.6509 21.7967 10.3037L21.9721 9.98875ZM36.0252 13.5266C36.0252 15.1717 35.7012 16.8006 35.0717 18.3204C34.4422 19.8402 33.5195 21.2211 32.3564 22.3843C31.1933 23.5475 29.8124 24.4702 28.2927 25.0997C26.773 25.7293 25.1442 26.0533 23.4993 26.0533C21.8543 26.0533 20.2255 25.7293 18.7058 25.0997C17.1861 24.4702 15.8052 23.5475 14.6421 22.3843C13.479 21.2211 12.5563 19.8402 11.9268 18.3204C11.2973 16.8006 10.9733 15.1717 10.9733 13.5266C10.9733 10.2044 12.293 7.01817 14.6421 4.66897C16.9912 2.31977 20.1772 1 23.4993 1C26.8213 1 30.0073 2.31977 32.3564 4.66897C34.7055 7.01817 36.0252 10.2044 36.0252 13.5266Z" stroke="white" stroke-width="1.5"/>
</svg>

<svg width="47" height="36" fill="none" xmlns="http://www.w3.org/2000/svg"><path d="m11.79 18.895-4.41 4.566c-.965 1-1.449 1.5-1.617 1.925-.38.965-.053 2.037.775 2.545.365.222 1.022.291 2.335.431.743.079 1.113.116 1.423.236a2.564 2.564 0 0 1 1.494 1.546c.115.323.152.705.23 1.475.132 1.36.2 2.04.414 2.416.49.859 1.527 1.195 2.457.802.412-.172.895-.672 1.861-1.674l6.748-6.988 6.748 6.988c.966 1.002 1.45 1.502 1.86 1.674.931.393 1.967.057 2.458-.802.214-.376.28-1.056.415-2.416.077-.77.114-1.152.229-1.475.258-.719.798-1.28 1.494-1.546.31-.12.68-.157 1.423-.236 1.313-.14 1.97-.21 2.335-.431.828-.509 1.156-1.58.775-2.545-.169-.424-.652-.925-1.618-1.925l-4.41-4.566M21.973 9.99c.68-1.222 1.02-1.83 1.528-1.83s.848.608 1.528 1.83l.176.315c.193.347.29.519.44.633.152.115.34.158.716.242l.34.079c1.32.298 1.98.447 2.138.952.157.506-.293 1.032-1.194 2.084l-.232.272c-.256.3-.385.448-.442.634-.057.186-.038.385 0 .784l.036.363c.136 1.405.204 2.108-.206 2.42-.412.31-1.03.026-2.267-.543l-.319-.147c-.352-.16-.528-.241-.714-.241-.186 0-.361.08-.714.241l-.318.147c-1.237.571-1.856.854-2.267.542-.412-.311-.342-1.014-.206-2.42l.035-.362c.038-.4.058-.598 0-.784-.057-.184-.186-.335-.441-.634l-.233-.272c-.9-1.052-1.351-1.578-1.194-2.085.158-.504.818-.653 2.139-.951l.34-.08c.376-.083.563-.125.716-.24.15-.115.246-.287.44-.634l.175-.315Zm14.053 3.538a12.527 12.527 0 1 1-25.054 0 12.527 12.527 0 0 1 25.054 0Z" stroke="#fff" stroke-width="1.5"/></svg>
